assets/images/counter/icon-01.svg

<svg width="75" height="33" viewBox="0 0 75 33" fill="none" xmlns="http://www.w3.org/2000/svg">
<path d="M1.23588 28.4092H7.19696C9.22406 31.9443 13.7335 33.1666 17.2686 31.139C18.4049 30.4876 19.347 29.545 19.9989 28.4092H54.1718C56.1979 31.9438 60.7064 33.1666 64.241 31.1405C65.3888 30.4826 66.3385 29.5279 66.9909 28.377C67.1312 28.3523 67.2665 28.3035 67.3902 28.2321L73.5711 24.5235C73.9429 24.3002 74.1707 23.8983 74.1707 23.4642V12.3388C74.1677 12.1929 74.138 12.049 74.0842 11.9132C74.0706 11.8765 74.0555 11.8418 74.0384 11.8061C74.0213 11.7704 74.0138 11.7357 73.9937 11.702L70.6351 6.10353L71.5687 4.2384C71.8735 3.62725 71.6255 2.88482 71.0149 2.58C70.9047 2.52518 70.7875 2.48695 70.6663 2.46683L64.3083 1.40599L61.2908 0.903998C46.49 -1.52198 31.3013 0.96637 18.0482 7.98879L14.404 9.9334L8.84127 11.1693C5.0597 12.0022 1.85809 14.5017 0.133296 17.9684C0.0467792 18.1394 0.001006 18.328 0 18.5196V27.1728C0 27.8554 0.553303 28.4092 1.23588 28.4092ZM18.1247 26.6783C17.0271 29.1722 14.1158 30.3045 11.6219 29.2069C9.12798 28.1094 7.99573 25.198 9.09328 22.7041C10.1908 20.2102 13.1022 19.078 15.5961 20.1755C17.3898 20.9647 18.5462 22.7408 18.5427 24.7005C18.5407 25.3816 18.3978 26.0551 18.1237 26.6783H18.1247ZM65.0996 26.6783C64.002 29.1722 61.0906 30.3045 58.5968 29.2069C56.1029 28.1094 54.9706 25.198 56.0682 22.7041C57.1657 20.2102 60.0771 19.078 62.571 20.1755C64.3647 20.9647 65.5211 22.7408 65.5176 24.7005C65.5156 25.3816 65.3727 26.0551 65.0986 26.6783H65.0996ZM71.6985 16.0474H68.608L66.7534 13.5746H71.6985V16.0474ZM46.7943 2.57296C51.5059 2.32045 56.2311 2.58 60.8864 3.34809L61.5358 3.45674L55.116 9.8665H45.7506L46.7943 2.57296ZM55.628 12.3388C55.956 12.3388 56.2704 12.2085 56.5018 11.9766L64.5282 3.94867L68.608 4.62974L68.1131 5.60506C67.9244 5.98332 67.942 6.432 68.1603 6.79416L70.7513 11.1024H64.2812C63.5981 11.1024 63.0448 11.6562 63.0448 12.3388C63.0448 12.6064 63.1318 12.8664 63.2923 13.0802L67.0009 18.0252C67.2343 18.3366 67.6005 18.5196 67.9898 18.5196H71.6985V22.7645L67.9898 24.9933C67.9898 24.8957 67.9959 24.7981 67.9959 24.7005C67.9959 20.6041 64.675 17.2833 60.5791 17.2833C56.4826 17.2833 53.1618 20.6041 53.1618 24.7005C53.1643 25.0708 53.196 25.4405 53.2559 25.8056C53.2619 25.8489 53.2559 25.8937 53.2659 25.9369H43.4554L45.3975 12.3388H55.628ZM44.2713 2.74599L43.2537 9.8665H19.7851C27.4066 5.92346 35.7237 3.50502 44.2713 2.74599ZM2.47226 20.9919H4.94451V18.5196H2.65384C4.09997 16.0016 6.53903 14.2094 9.37395 13.5822L14.9699 12.3388H42.895L40.958 25.9364H20.9108C20.9108 25.8932 20.9108 25.8489 20.9209 25.8056C20.9802 25.44 21.0114 25.0708 21.0149 24.7C21.0149 20.6041 17.6941 17.2833 13.5977 17.2833C9.50171 17.2833 6.18089 20.6041 6.18089 24.7C6.18341 25.0708 6.2151 25.44 6.27495 25.8056C6.28099 25.8489 6.27495 25.8932 6.28451 25.9364H2.47226V20.9919Z" fill="#FF3600"/>
</svg>

<svg version="1.2" xmlns="http://www.w3.org/2000/svg" viewBox="0 0 75 33" width="75" height="33"><style>.a{fill:#c9b199}</style><path class="a" d="m1.2 28.4h6c2 3.5 6.5 4.8 10.1 2.7 1.1-0.6 2-1.6 2.7-2.7h34.2c2 3.5 6.5 4.8 10 2.7 1.2-0.6 2.1-1.6 2.8-2.7q0.2-0.1 0.4-0.2l6.2-3.7c0.3-0.2 0.6-0.6 0.6-1v-11.2q0-0.2-0.1-0.4 0 0-0.1-0.1 0 0 0-0.1l-3.4-5.6 1-1.9c0.3-0.6 0-1.3-0.6-1.6q-0.2-0.1-0.3-0.1l-6.4-1.1-3-0.5c-14.8-2.4-30 0.1-43.3 7.1l-3.6 1.9-5.6 1.3c-3.7 0.8-6.9 3.3-8.7 6.8q-0.1 0.2-0.1 0.5v8.7c0 0.7 0.6 1.2 1.2 1.2zm16.9-1.7c-1.1 2.5-4 3.6-6.5 2.5-2.5-1.1-3.6-4-2.5-6.5 1.1-2.5 4-3.6 6.5-2.5 1.8 0.8 2.9 2.5 2.9 4.5q0 1-0.4 2zm47 0c-1.1 2.5-4 3.6-6.5 2.5-2.5-1.1-3.6-4-2.5-6.5 1.1-2.5 4-3.6 6.5-2.5 1.8 0.8 2.9 2.5 2.9 4.5q0 1-0.4 2zm-9.5-14.4c0.4 0 0.7-0.1 0.9-0.3l8-8.1 4.1 0.7-0.5 1c-0.2 0.4-0.2 0.8 0.1 1.2l2.5 4.3h-6.4c-0.7 0-1.3 0.6-1.3 1.2q0 0.4 0.3 0.8l3.7 4.9c0.2 0.3 0.6 0.5 1 0.5h3.7v4.3l-3.7 2.2q0-0.2 0-0.3c0-4.1-3.3-7.4-7.4-7.4-4.1 0-7.4 3.3-7.4 7.4q0 0.6 0.1 1.1 0 0.1 0 0.1h-9.8l1.9-13.6zm-8.8-9.7c4.7-0.3 9.4 0 14.1 0.7l0.6 0.2-6.4 6.4h-9.4zm24.9 13.4h-3.1l-1.8-2.4h4.9zm-27.4-13.3l-1 7.1h-23.5c7.6-4 15.9-6.4 24.5-7.1zm-41.8 18.2h2.5v-2.5h-2.3c1.4-2.5 3.9-4.3 6.7-4.9l5.6-1.2h27.9l-1.9 13.6h-20.1q0-0.1 0-0.2 0.1-0.5 0.1-1.1c0-4.1-3.3-7.4-7.4-7.4-4.1 0-7.4 3.3-7.4 7.4q0 0.6 0.1 1.1 0 0.1 0 0.2h-3.8z"/></svg>
